icons/pin-24.svg

<svg width="24" height="24" viewBox="0 0 24 24" fill="none" xmlns="http://www.w3.org/2000/svg">
<path fill-rule="evenodd" clip-rule="evenodd" d="M7.88604 1.55335C8.77954 0.659853 10.2965 0.978827 10.7545 2.15651L11.3882 3.78603C11.7137 4.6231 12.2335 5.3708 12.9048 5.96749C13.5404 6.53249 14.2951 6.94717 15.1128 7.1808L19.0719 8.31199C20.3549 8.67856 20.7721 10.2886 19.8286 11.2321L16.0607 15L21.6553 20.5947C21.9482 20.8876 21.9482 21.3625 21.6553 21.6553C21.3624 21.9482 20.8876 21.9482 20.5947 21.6553L15 16.0607L11.2321 19.8286C10.2886 20.7721 8.67856 20.3549 8.31199 19.0719L7.18081 15.1128C6.94717 14.2951 6.53249 13.5404 5.96749 12.9048C5.3708 12.2335 4.6231 11.7137 3.78603 11.3882L2.15651 10.7545C0.978827 10.2965 0.659853 8.77954 1.55335 7.88604L7.88604 1.55335ZM14.4748 14.4646C14.4731 14.4663 14.4714 14.468 14.4697 14.4697C14.468 14.4714 14.4663 14.4731 14.4646 14.4748L10.1714 18.768C10.0366 18.9027 9.80664 18.8431 9.75428 18.6599L8.62309 14.7007C8.32762 13.6665 7.80316 12.7121 7.0886 11.9083C6.33397 11.0593 5.38834 10.4019 4.3297 9.99018L2.70017 9.35648C2.53194 9.29105 2.48637 9.07434 2.61401 8.9467L8.9467 2.61401C9.07434 2.48637 9.29105 2.53194 9.35648 2.70017L9.99018 4.3297C10.4019 5.38834 11.0593 6.33397 11.9083 7.0886C12.7122 7.80316 13.6665 8.32761 14.7007 8.62309L18.6599 9.75427C18.8431 9.80664 18.9027 10.0366 18.768 10.1714L14.4748 14.4646Z" fill="#24292E"/>
</svg>

<svg xmlns="http://www.w3.org/2000/svg" width="24" height="24" viewBox="0 0 24 24"><path fill-rule="evenodd" d="M7.886 1.553a1.75 1.75 0 012.869.604l.633 1.629a5.666 5.666 0 003.725 3.395l3.959 1.131a1.75 1.75 0 01.757 2.92L16.06 15l5.594 5.595a.75.75 0 11-1.06 1.06L15 16.061l-3.768 3.768a1.75 1.75 0 01-2.92-.757l-1.131-3.96a5.667 5.667 0 00-3.395-3.724l-1.63-.633a1.75 1.75 0 01-.603-2.869l6.333-6.333zm6.589 12.912l-.005.005-.005.005-4.294 4.293a.25.25 0 01-.417-.108l-1.13-3.96A7.166 7.166 0 004.33 9.99L2.7 9.356a.25.25 0 01-.086-.41l6.333-6.332a.25.25 0 01.41.086l.633 1.63a7.167 7.167 0 004.71 4.293l3.96 1.131a.25.25 0 01.108.417l-4.293 4.294z"/></svg>
